contributed-vectors/fitonomy.svg

<svg xmlns="http://www.w3.org/2000/svg" xml:space="preserve" style="fill-rule:evenodd;clip-rule:evenodd;stroke-linejoin:round;stroke-miterlimit:2" viewBox="0 0 192 192"><path d="M164.5 21.5c0-5.519-4.481-10-10-10h-133c-5.519 0-10 4.481-10 10v133c0 5.519 4.481 10 10 10h133c5.519 0 10-4.481 10-10v-133Z" style="fill:#96dfd3" transform="translate(8 8)"/><path d="M111.25 99.521s16.098-3.549 17.258-25.395c0 0-36.289 14.467-45.825 19.511-9.111 4.818-27.511 22.172-22.493 54.963 0 0-9.786-46.445 22.527-60.171l44.963-19.257s23.288-10.639 7.754-36.091c0 0-10.961 9.38-38.533 19.081-12.333 4.34-27.554 9.569-34.033 17.396-6.004 7.252-22.076 23.671.7 89.316 0 0-7.487-44.44 47.682-59.353" style="fill:#fff" transform="matrix(.67617 0 0 .67617 34.912 31.103)"/></svg>

<?xml version="1.0" encoding="UTF-8" standalone="no"?>
<!DOCTYPE svg PUBLIC "-//W3C//DTD SVG 1.1//EN" "http://www.w3.org/Graphics/SVG/1.1/DTD/svg11.dtd">
<svg width="100%" height="100%" viewBox="0 0 192 192" version="1.1" xmlns="http://www.w3.org/2000/svg" xmlns:xlink="http://www.w3.org/1999/xlink" xml:space="preserve" xmlns:serif="http://www.serif.com/" style="fill-rule:evenodd;clip-rule:evenodd;stroke-linejoin:round;stroke-miterlimit:2;">
    <g id="Layer1">
        <g transform="matrix(1,0,0,1,8,8)">
            <path d="M164.5,21.5C164.5,15.981 160.019,11.5 154.5,11.5L21.5,11.5C15.981,11.5 11.5,15.981 11.5,21.5L11.5,154.5C11.5,160.019 15.981,164.5 21.5,164.5L154.5,164.5C160.019,164.5 164.5,160.019 164.5,154.5L164.5,21.5Z" style="fill:rgb(150,223,211);"/>
        </g>
        <g transform="matrix(0.676169,0,0,0.676169,34.9118,31.1028)">
            <path d="M111.25,99.521C111.25,99.521 127.348,95.972 128.508,74.126C128.508,74.126 92.219,88.593 82.683,93.637C73.572,98.455 55.172,115.809 60.19,148.6C60.19,148.6 50.404,102.155 82.717,88.429L127.68,69.172C127.68,69.172 150.968,58.533 135.434,33.081C135.434,33.081 124.473,42.461 96.901,52.162C84.568,56.502 69.347,61.731 62.868,69.558C56.864,76.81 40.792,93.229 63.568,158.874C63.568,158.874 56.081,114.434 111.25,99.521" style="fill:white;"/>
        </g>
    </g>
</svg>
